X: 12911
T: Fickle Lad, The
R: jig
M: 6/8
K: Gmajor
|:G,A,B, G,A,B,|A,B,C A,B,C|DEF GFG|AGF G3|
G,A,B, G,A,B,|A,B,C A,B,C|DEG AGA|BAG AFD:|
G,A,B, G,A,B,|A,B,C A,B,C|DEF GFG|AGF G2A|
|:BcB GAB|ABA A2B|cdc F2G|1 AGF G2A:|2 AGF GFE||
|:DED B,CB,|DED B,CB,|DED DGA|BAG FED|CDC A,B,A,|CDC A,B,A,|
CDC CB,A,|1 G,A,B, G,A,B,:|2 G,A,B, G,A,B,|A,B,C A,B,C|DEF GFG|AGF G3||

